!!!OTL: Die Schlangenkoechin 'Oh, where have you been, Lord Randall, my son?
!!!ARE: Nord - America, USA, Carolina
!!!YOR: 4, S. 215
!!    1957 gedruckt
!!!SCT: Q2079W
!!!YEM: Copyright 1995, estate of Helmut Schaffrath.
**kern
*ICvox
*Ivox
*M6/8
*k[f#]
*G:
{8g
=1
8b
8b
8b
4b
8a
=2
8g
8g
8a
4g}
{8g
=3
8b
8dd
8dd
4dd
8dd
=4
8cc
8a
8a
4b}
{8dd
=5
8gg
8ff#
8ee
8ee
8dd
16b
16dd
=6
8dd
8cc
8a
4g}
{16g
16g
=7
8a
8b
8cc
8cc
8a
16a
16a
=8
8a
8a
8f#
4g}
==
!!!AGN: Ballade, Mord; Reigen - Tanz, antiphonal
!! Amerikanische Fassung der Ballade.
!!    Zweite und vierte Zeile = Refrain.
!!!ONB: ESAC (Essen Associative Code) Database: BALLADE
!!!AMT: compound duple
!!!AIN: vox
!!!EED: Helmut Schaffrath
!!!EEV: 1.0
*-
